X: 138
T: Who's afraid
%R: jig
B: Chas & Sam Thompson "Twenty Four Country Dances for the Year 1778", London 1778, p.69 #2
F: http://www.vwml.org/browse/browse-collections-dance-tune-books/browse-thompsons1778#
Z: 2014 John Chambers <jc:trillian.mit.edu> (added dance description)
M: 6/8
L: 1/8
K: C
% - - - - - - - - - - - - - - - - - - - - - - - - - - - - -
G |\
c2c d2d | e2e f2f |\
g>fe f>ed | c2c c2 :: e/f/ |\
g2g gag | f2f fgf |
e2e efe | d2d e2e/f/ |\
g2g gag | f2f fgf |\
efe dcB | c2c c2 :|
% - - - - - - - - - - Dance description - - - - - - - - - -
%%begintext align
%% The 1st & 2nd Cu: set and change sides
%% .|. the same back again :|. cross over
%% two Cu: lead up one .|: hand 6 quite
%% round :|:
%%endtext

%%sep 1 1 500
%%sep 1 1 500
